X: 20535
Q: "Slow."
M: C
L: 1/8
K: G
|:\
|: (ga) |\
{g}b2(ag) g3a | (bag)e (de)(ga) | b2a2 a3b | (aba)g e3g |\
d3e g3a | (bag)e Hg3a | (ga/b/) A2 (ABc)B | A4 G2 :|


